X: 68
M:2/4
L:1/16
K:G
vGDEG .c2u(c"4"e) | dBAG BGEF | v.G2vDuE .G2"4".e2 | dBcA G2z2 |
|:.d2vBuc .d2.g2 | fafd ege^c | .d2vBu=c .d2.g2 | fge^c d3"4"e |
defe dcBA | .B2(AG) "4"AGEF | v.G2uDE .G2"4".e2 | dBcA G2z2 :|


